svgs/sharp-solid/arrows-cross.svg

<svg xmlns="http://www.w3.org/2000/svg" viewBox="0 0 448 512"><!--! Font Awesome Pro 6.6.0 by @fontawesome - https://fontawesome.com License - https://fontawesome.com/license (Commercial License) Copyright 2024 Fonticons, Inc. --><path d="M288 32l-32 0 0 64 32 0 50.7 0L25.4 409.4 2.7 432 48 477.3l22.6-22.6L384 141.3l0 50.7 0 32 64 0 0-32 0-128 0-32-32 0L288 32zM70.6 57.4L48 34.7 2.7 80l22.6 22.6L156.1 233.4l45.3-45.3L70.6 57.4zM338.7 416L288 416l-32 0 0 64 32 0 128 0 32 0 0-32 0-128 0-32-64 0 0 32 0 50.7-92.1-92.1-45.3 45.3L338.7 416z"/></svg>

<svg xmlns="http://www.w3.org/2000/svg" viewBox="0 0 448 512"><!--! Font Awesome Pro 6.4.2 by @fontawesome - https://fontawesome.com License - https://fontawesome.com/license (Commercial License) Copyright 2023 Fonticons, Inc. --><path d="M288 32H256V96h32 50.7L25.4 409.4 2.7 432 48 477.3l22.6-22.6L384 141.3V192v32h64V192 64 32H416 288zM70.6 57.4L48 34.7 2.7 80l22.6 22.6L156.1 233.4l45.3-45.3L70.6 57.4zM338.7 416H288 256v64h32H416h32V448 320 288H384v32 50.7l-92.1-92.1-45.3 45.3L338.7 416z"/></svg>
